assets/icon-lightning-bolt.svg

<svg
  class="icon icon-accordion icon-lightning-bolt"
  aria-hidden="true"
  focusable="false"
  xmlns="http://www.w3.org/2000/svg"
  width="20"
  height="20"
  viewBox="0 0 20 20"
>
  <path d="M14.6792 0.161747C14.8796 0.280525 14.9715 0.522024 14.9006 0.743992L12.5162 8.21151L16.6937 9.21166C16.8685 9.2535 17.0074 9.38595 17.0575 9.55856C17.1076 9.73117 17.0612 9.91739 16.936 10.0463L7.56282 19.6949C7.39667 19.8659 7.13287 19.8958 6.93265 19.7663C6.73242 19.6368 6.65151 19.384 6.73935 19.1623L9.70397 11.6806L5.23445 10.6106C5.06054 10.5689 4.9221 10.4376 4.87139 10.2661C4.82068 10.0946 4.86541 9.9091 4.9887 9.77957L14.0621 0.247179C14.2228 0.0784039 14.4787 0.042969 14.6792 0.161747ZM6.3116 9.84018L10.4977 10.8424C10.6387 10.8761 10.7581 10.9694 10.8249 11.0981C10.8918 11.2267 10.8995 11.378 10.8461 11.5128L8.59272 17.1996L15.6066 9.97963L11.7597 9.05865C11.6245 9.02628 11.5089 8.93906 11.4406 8.81795C11.3723 8.69683 11.3575 8.55276 11.3998 8.42031L13.286 2.51296L6.3116 9.84018Z" />
</svg>

<svg xmlns="http://www.w3.org/2000/svg" class="icon icon-accordion icon-lightning-bolt" viewBox="0 0 20 20"><path d="M14.68.162a.5.5 0 0 1 .22.582l-2.384 7.468 4.178 1a.5.5 0 0 1 .242.834l-9.373 9.649a.5.5 0 0 1-.824-.533l2.965-7.481-4.47-1.07a.5.5 0 0 1-.245-.831L14.062.247a.5.5 0 0 1 .617-.085M6.311 9.84l4.186 1.002a.5.5 0 0 1 .348.67L8.593 17.2l7.014-7.22-3.847-.921a.5.5 0 0 1-.36-.639l1.886-5.907z"/></svg>
